X:1
T: Swirl of the Sea
N:
C:Carolan
S:4 times
A:
O:
R:
M:3/4
K:Gm
I:speed 100
%W: Kitty Magennis
% voice 1 (1 lines, 18 notes)
K:Gm
M:3/4
L:1/16
D2 F2 |G4 A2 G2 F2 D2 |F4 F4 f4 |d4 f2 d2 c2 A2 |c8 d2 e2 |
%W:
% voice 1 (1 lines, 15 notes)
f4 d4 d2 f2 |g4 g4 f2 g2 |a4 g4 f2 d2 |d8 d2 e2 |
%W:
% voice 1 (1 lines, 19 notes)
f4 e2 f2 g2 a2 |g4 a2 g2 f2 e2 |f4 g2 f2 e2 d2 |c4 A4 A2 c2 |
%W:
% voice 1 (1 lines, 14 notes)
d2 e2 f4 F4 |A4 c2 A2 G2 A2 |F4 D4 G2 A2 |G8 ||
%W: Bridget Cruise
% voice 1 (1 lines, 18 notes)
K:G
G2 A2 |B2 d2 e4 d2 B2 |A4 G4 G2 A B |A4 G4 G4 |G8 G2 A2 |
%W:
% voice 1 (1 lines, 16 notes)
B2 d2 e4 d2 B2 |A4 G4 A2 B2 |d4 B4 d2 e2 |d8 d2 e2 |
%W:
% voice 1 (1 lines, 20 notes)
=f2 e2 =f2 g2 a2 g2 |e2 d2 e2 g2 a2 g e |d4 B4 A2 G2 |A8 G2 A2 |
%W:
% voice 1 (1 lines, 14 notes)
B2 d2 e4 d2 B2 |A4 G4 G2 A B |A4 G4 G4 |G8 ||
